StripePaymentSheet/StripePaymentSheet/Resources/StripePaymentSheet.xcassets/Carousel/carousel_card_diners.imageset/dinersClubLight.svg

<svg fill="none" height="40" viewBox="0 0 56 40" width="56" xmlns="http://www.w3.org/2000/svg"><path d="m26.0785 32.9311c-7.1748.0342-13.0785-5.7782-13.0785-12.8526 0-7.7316 5.9037-13.0785 13.0785-13.0785h3.3524c7.088 0 13.56 5.3446 13.56 13.0785 0 7.0744-6.472 12.8526-13.56 12.8526zm.0274-24.85853c-2.347 0-4.6413.69597-6.5928 1.99993-1.9515 1.3039-3.4725 3.1572-4.3706 5.3256-.8982 2.1684-1.1332 4.5544-.6753 6.8563s1.5881 4.4164 3.2476 6.0759c1.6596 1.6596 3.7741 2.7898 6.076 3.2477s4.6879.2229 6.8563-.6753c2.1683-.8981 4.0217-2.4191 5.3256-4.3706s1.9999-4.2458 1.9999-6.5928c0-3.1473-1.2502-6.1656-3.4757-8.391-2.2254-2.22549-5.2438-3.47573-8.391-3.47573zm-2.6928 18.89093v-14.0301c-1.4213.5437-2.644 1.506-3.5065 2.7596-.8626 1.2536-1.3244 2.7395-1.3244 4.2611 0 1.5217.4618 3.0076 1.3244 4.2612.8625 1.2535 2.0852 2.2158 3.5065 2.7596zm10.219-7.0196c-.0041-1.5198-.468-3.0028-1.3307-4.254s-2.0837-2.2122-3.5027-2.7565v14.0324c1.4208-.5451 2.6431-1.5078 3.5059-2.7613.8628-1.2534 1.3257-2.7389 1.3275-4.2606z" fill="#004a98"/></svg>

<svg width="56" height="40" viewBox="0 0 56 40" fill="none" xmlns="http://www.w3.org/2000/svg">
<path d="M26.0785 32.9311C18.9037 32.9653 13 27.1529 13 20.0785C13 12.3469 18.9037 7 26.0785 7H29.4309C36.5189 7 42.9909 12.3446 42.9909 20.0785C42.9909 27.1529 36.5189 32.9311 29.4309 32.9311H26.0785ZM26.1059 8.07257C23.7589 8.07257 21.4646 8.76854 19.5131 10.0725C17.5616 11.3764 16.0406 13.2297 15.1425 15.3981C14.2443 17.5665 14.0093 19.9525 14.4672 22.2544C14.9251 24.5563 16.0553 26.6708 17.7148 28.3303C19.3744 29.9899 21.4889 31.1201 23.7908 31.578C26.0927 32.0359 28.4787 31.8009 30.6471 30.9027C32.8154 30.0046 34.6688 28.4836 35.9727 26.5321C37.2766 24.5806 37.9726 22.2863 37.9726 19.9393C37.9726 16.792 36.7224 13.7737 34.4969 11.5483C32.2715 9.32281 29.2531 8.07257 26.1059 8.07257V8.07257ZM23.4131 26.9635V12.9334C21.9918 13.4771 20.7691 14.4394 19.9066 15.693C19.044 16.9466 18.5822 18.4325 18.5822 19.9541C18.5822 21.4758 19.044 22.9617 19.9066 24.2153C20.7691 25.4688 21.9918 26.4311 23.4131 26.9749V26.9635ZM33.6321 19.9439C33.628 18.4241 33.1641 16.9411 32.3014 15.6899C31.4387 14.4387 30.2177 13.4777 28.7987 12.9334V26.9658C30.2195 26.4207 31.4418 25.458 32.3046 24.2045C33.1674 22.9511 33.6303 21.4656 33.6321 19.9439V19.9439Z" fill="#004A98"/>
</svg>
